X: 1
T: Blake's March
C: by Norman Blake
O: as played by Fletcher Bright
R: march, reel
Z: 2020 John Chambers <jc:trillian.mit.edu>
S: https://www.facebook.com/groups/Fiddletuneoftheday/ 2020-09-20
S: https://www.facebook.com/groups/Fiddletuneoftheday/photos/
M: C|
L: 1/8
K: D
ee |:\
"D"fdAF DFAd | "G"BGBd "D"AGFE | DFAd Bcde | "A"f2 e4 de |\
"D"fdAF DFAd | "G"Bcde "D"dBAG | FGAd "A"cdec |1 "D"d4 d2de :|2 "D"d3e d3e |
|:\
"D"fa3 a3g | "(A)"faec "D"d2dc | "G"BABc dedA | "D"B2 A4 A2 |\
"G"B4 d4 | "D"ABAG FEDF | "A"EDEG FDEF |1 "D"D4 D4 :|2 "D"D6 |]
